X:179
T:Frost is All Over
M:6/8
L:1/8
R:jig
N:Learned from Kira Ott
Z:Michael Abraham Shulman
N:Set is Paddy Clancy's - ~.
K:D
A|:def edc|dAF GFE|DFA DFA|Bcd ecA|
dcd edc|dAF GFE|DFA DFA|1 BAG d2A:|2 BAG d2e:|
fga afd|gfg bag|fga afd|gfg efg|
fga afd|gfg bag|fga efg|fdc d2e|
fga afd|gfg bag|fga afd|gfg efg|
fga efg|fdB AFA|Bcd efg|faf fge|d3||
